public/assets/img/about.svg

<svg height="52" viewBox="0 0 23 52" width="23" xmlns="http://www.w3.org/2000/svg" xmlns:xlink="http://www.w3.org/1999/xlink"><defs><path id="a" d="m624.05 760.75c0-3.92 2.24-5.18 6.3-6.93l3.29-1.4c2.1-.91 3.36-1.54 3.36-2.52 0-2.1-2.73-3.08-10.15-3.08-1.33 0-3.85-1.33-3.85-4.48 0-2.31 1.96-4.34 4.9-4.34 6.44 0 12.74 6.65 12.74 14.28 0 4.06-1.82 6.3-4.41 7.49l-4.62 2.1c-1.89.84-2.87 1.89-2.87 3.01 0 1.05.21 2.38.7 3.78-.35.63-1.75.91-2.31.35-1.19-1.61-3.08-5.39-3.08-8.26zm5.32 23.45c-2.8 0-5.67-2.24-5.67-5.67 0-3.29 2.52-5.81 5.67-5.81 3.36 0 5.67 2.8 5.67 5.81 0 3.22-2.31 5.67-5.67 5.67z"/><filter id="b" height="119.5%" width="151%" x="-14.2%" y="-5.4%"><feMorphology in="SourceAlpha" operator="dilate" radius="0.5" result="shadowSpreadOuter1"/><feOffset dx="4" dy="4" in="shadowSpreadOuter1" result="shadowOffsetOuter1"/><feComposite in="shadowOffsetOuter1" in2="SourceAlpha" operator="out" result="shadowOffsetOuter1"/><feColorMatrix in="shadowOffsetOuter1" type="matrix" values="0 0 0 0 0.537388393   0 0 0 0 0.537388393   0 0 0 0 0.537388393  0 0 0 0.476987092 0"/></filter></defs><g fill="none" fill-rule="evenodd" transform="translate(-622 -737)"><use fill="#000" filter="url(#b)" xlink:href="#a"/><use fill="#fff" fill-rule="evenodd" stroke="#000" xlink:href="#a"/></g></svg>

<?xml version="1.0" encoding="UTF-8"?>
<svg width="23px" height="52px" viewBox="0 0 23 52" version="1.1" xmlns="http://www.w3.org/2000/svg" xmlns:xlink="http://www.w3.org/1999/xlink">
    <!-- Generator: Sketch 49 (51002) - http://www.bohemiancoding.com/sketch -->
    <title>?</title>
    <desc>Created with Sketch.</desc>
    <defs>
        <path d="M624.05,760.75 C624.05,756.83 626.29,755.57 630.35,753.82 L633.64,752.42 C635.74,751.51 637,750.88 637,749.9 C637,747.8 634.27,746.82 626.85,746.82 C625.52,746.82 623,745.49 623,742.34 C623,740.03 624.96,738 627.9,738 C634.34,738 640.64,744.65 640.64,752.28 C640.64,756.34 638.82,758.58 636.23,759.77 L631.61,761.87 C629.72,762.71 628.74,763.76 628.74,764.88 C628.74,765.93 628.95,767.26 629.44,768.66 C629.09,769.29 627.69,769.57 627.13,769.01 C625.94,767.4 624.05,763.62 624.05,760.75 Z M629.37,784.2 C626.57,784.2 623.7,781.96 623.7,778.53 C623.7,775.24 626.22,772.72 629.37,772.72 C632.73,772.72 635.04,775.52 635.04,778.53 C635.04,781.75 632.73,784.2 629.37,784.2 Z" id="path-1"></path>
        <filter x="-14.2%" y="-5.4%" width="151.0%" height="119.5%" filterUnits="objectBoundingBox" id="filter-2">
            <feMorphology radius="0.5" operator="dilate" in="SourceAlpha" result="shadowSpreadOuter1"></feMorphology>
            <feOffset dx="4" dy="4" in="shadowSpreadOuter1" result="shadowOffsetOuter1"></feOffset>
            <feComposite in="shadowOffsetOuter1" in2="SourceAlpha" operator="out" result="shadowOffsetOuter1"></feComposite>
            <feColorMatrix values="0 0 0 0 0.537388393   0 0 0 0 0.537388393   0 0 0 0 0.537388393  0 0 0 0.476987092 0" type="matrix" in="shadowOffsetOuter1"></feColorMatrix>
        </filter>
    </defs>
    <g id="music-icon" stroke="none" stroke-width="1" fill="none" fill-rule="evenodd">
        <g id="About" transform="translate(-622.000000, -737.000000)">
            <g id="?">
                <use fill="black" fill-opacity="1" filter="url(#filter-2)" xlink:href="#path-1"></use>
                <use stroke="#000000" stroke-width="1" fill="#FFFFFF" fill-rule="evenodd" xlink:href="#path-1"></use>
            </g>
        </g>
    </g>
</svg>
